static/images/icons/gradients/community.svg

<svg width="40" height="40" viewBox="0 0 40 40" fill="none" xmlns="http://www.w3.org/2000/svg">
<g clip-path="url(#clip0_1025_2522)">
<path d="M16.6016 33.6471V33C16.6016 27.4772 21.0787 23 26.6016 23C32.1244 23 36.6016 27.4771 36.6016 33V33.6471H26.6016H16.6016Z" fill="url(#paint0_linear_1025_2522)" stroke="#FD366E" stroke-width="1.2" stroke-linecap="round" stroke-linejoin="round"/>
<circle cx="26.6016" cy="17" r="5.4" stroke="#FD366E" stroke-width="1.2"/>
<circle cx="13.6016" cy="13" r="5.4" stroke="#FD366E" stroke-width="1.2"/>
<path fill-rule="evenodd" clip-rule="evenodd" d="M3.60156 29V29.6471H13.6016H16.6016H17.1658C17.4657 28.7938 17.9225 27.918 18.5305 27.0822C19.6158 25.5905 20.9707 24.5183 22.2664 24.0045C20.538 21.013 17.3048 19 13.6016 19C8.07872 19 3.60156 23.4772 3.60156 29Z" fill="url(#paint1_linear_1025_2522)"/>
<path d="M3.60156 29.6471H3.00156C3.00156 29.9784 3.27019 30.2471 3.60156 30.2471V29.6471ZM17.1658 29.6471V30.2471C17.4205 30.2471 17.6474 30.0863 17.7319 29.846L17.1658 29.6471ZM18.5305 27.0822L19.0157 27.4352L18.5305 27.0822ZM22.2664 24.0045L22.4875 24.5623C22.6496 24.498 22.7758 24.3664 22.8331 24.2016C22.8904 24.0369 22.8731 23.8554 22.7859 23.7044L22.2664 24.0045ZM4.20156 29.6471V29H3.00156V29.6471H4.20156ZM13.6016 29.0471H3.60156V30.2471H13.6016V29.0471ZM16.6016 29.0471H13.6016V30.2471H16.6016V29.0471ZM17.1658 29.0471H16.6016V30.2471H17.1658V29.0471ZM17.7319 29.846C18.0115 29.0503 18.4403 28.2261 19.0157 27.4352L18.0453 26.7292C17.4046 27.6099 16.9199 28.5373 16.5998 29.4481L17.7319 29.846ZM19.0157 27.4352C20.0465 26.0184 21.3155 25.027 22.4875 24.5623L22.0452 23.4468C20.6259 24.0095 19.185 25.1627 18.0453 26.7292L19.0157 27.4352ZM13.6016 19.6C17.0819 19.6 20.1212 21.4911 21.7468 24.3047L22.7859 23.7044C20.9547 20.5349 17.5278 18.4 13.6016 18.4V19.6ZM4.20156 29C4.20156 23.8085 8.41009 19.6 13.6016 19.6V18.4C7.74734 18.4 3.00156 23.1458 3.00156 29H4.20156Z" fill="#FD366E"/>
</g>
<defs>
<linearGradient id="paint0_linear_1025_2522" x1="26.6016" y1="23" x2="26.6016" y2="42" gradientUnits="userSpaceOnUse">
<stop stop-color="#FD366E" stop-opacity="0"/>
<stop offset="1" stop-color="#FD366E" stop-opacity="0.6"/>
</linearGradient>
<linearGradient id="paint1_linear_1025_2522" x1="13.6016" y1="19" x2="13.6016" y2="38" gradientUnits="userSpaceOnUse">
<stop stop-color="#FD366E" stop-opacity="0"/>
<stop offset="1" stop-color="#FD366E" stop-opacity="0.6"/>
</linearGradient>
<clipPath id="clip0_1025_2522">
<rect width="40" height="40" fill="white"/>
</clipPath>
</defs>
</svg>

<svg xmlns="http://www.w3.org/2000/svg" width="40" height="40" fill="none"><g clip-path="url(#a)"><path fill="url(#b)" stroke="#FD366E" stroke-linecap="round" stroke-linejoin="round" stroke-width="1.2" d="M16.602 33.647V33c0-5.523 4.477-10 10-10 5.522 0 10 4.477 10 10v.647h-20Z"/><circle cx="26.602" cy="17" r="5.4" stroke="#FD366E" stroke-width="1.2"/><circle cx="13.602" cy="13" r="5.4" stroke="#FD366E" stroke-width="1.2"/><path fill="url(#c)" fill-rule="evenodd" d="M3.602 29v.647h13.564c.3-.853.756-1.729 1.364-2.565 1.086-1.492 2.44-2.564 3.736-3.078A9.996 9.996 0 0 0 13.602 19c-5.523 0-10 4.477-10 10Z" clip-rule="evenodd"/><path fill="#FD366E" d="M3.602 29.647h-.6a.6.6 0 0 0 .6.6v-.6Zm13.564 0v.6a.6.6 0 0 0 .566-.401l-.566-.199Zm1.364-2.565.486.353-.485-.353Zm3.736-3.078.222.558a.6.6 0 0 0 .298-.858l-.52.3ZM4.202 29.648V29h-1.2v.647h1.2Zm9.4-.6h-10v1.2h10v-1.2Zm3 0h-3v1.2h3v-1.2Zm.564 0h-.564v1.2h.564v-1.2Zm.566.799a9.48 9.48 0 0 1 1.284-2.41l-.97-.707a10.68 10.68 0 0 0-1.446 2.72l1.132.397Zm1.284-2.41c1.03-1.418 2.3-2.409 3.472-2.874l-.443-1.115c-1.42.563-2.86 1.716-4 3.282l.97.706ZM13.602 19.6c3.48 0 6.52 1.891 8.145 4.705l1.039-.6a10.596 10.596 0 0 0-9.184-5.305v1.2Zm-9.4 9.4a9.4 9.4 0 0 1 9.4-9.4v-1.2c-5.855 0-10.6 4.746-10.6 10.6h1.2Z"/></g><defs><linearGradient id="b" x1="26.602" x2="26.602" y1="23" y2="42" gradientUnits="userSpaceOnUse"><stop stop-color="#FD366E" stop-opacity="0"/><stop offset="1" stop-color="#FD366E" stop-opacity=".6"/></linearGradient><linearGradient id="c" x1="13.602" x2="13.602" y1="19" y2="38" gradientUnits="userSpaceOnUse"><stop stop-color="#FD366E" stop-opacity="0"/><stop offset="1" stop-color="#FD366E" stop-opacity=".6"/></linearGradient><clipPath id="a"><path fill="#fff" d="M0 0h40v40H0z"/></clipPath></defs></svg>
